X: 21
T:Pigeon on the gate (Dave Townsend)
M:4/4
L:1/8
S:Dave Townsend
R:Hornpipe
K:G
BA|GFGD B,DGB|AGFE DGBd|cBAG FDEF| AGFE DGBA| GFGD B,DGB| AGFE DGBd| cBA
G FDEF| G2G2G2:||:A2|BcdB GBdg| fdcB A2A2|BdcB ADEF| AGFE DGBA| GFGD B,D
GB| AGFE DGBd|cBAG FDEF|G2G2G2:||
